src/assets/innovation.svg

<?xml version="1.0" encoding="utf-8"?>
<svg width="92.35px" height="122.88px" viewBox="0 0 92.35 122.88" version="1.1" xmlns:xlink="http://www.w3.org/1999/xlink" xmlns="http://www.w3.org/2000/svg">
  <defs>
    <path d="M0 0L92.35 0L92.35 122.88L0 122.88L0 0Z" id="path_1" />
    <clipPath id="clip_1">
      <use xlink:href="#path_1" />
    </clipPath>
  </defs>
  <g id="innovation" clip-path="url(#clip_1)">
    <path d="M0 0L92.35 0L92.35 122.88L0 122.88L0 0Z" id="innovation" fill="none" fill-rule="evenodd" stroke="none" />
    <path d="M3.39 113.07L15 111L20.73 121.25C24.88 126.4 27.52 117.94 28.73 114.99L39.78 94C37.21 93.11 34.12 90.53 30.93 87.65C24.58 87.78 18.67 86.65 14.31 81.13L1.5 105.85L0.38 108.23C-0.49 111.31 -0.03 113.35 3.38 113.07L3.39 113.07ZM46.77 27L50.56 35.88L60.18 36.74C60.5992 36.7822 60.9091 37.1497 60.88 37.57C60.8607 37.7695 60.768 37.9548 60.62 38.09L60.62 38.09L53.35 44.44L55.5 53.85C55.5646 54.1567 55.4392 54.4723 55.1818 54.6512C54.9244 54.8301 54.585 54.8375 54.32 54.67L46.06 49.7L37.77 54.65C37.4078 54.8652 36.9399 54.7493 36.72 54.39C36.613 54.2204 36.5804 54.0143 36.63 53.82L36.63 53.82L38.78 44.41L31.51 38.06C31.2046 37.7847 31.1694 37.318 31.43 37C31.5689 36.8458 31.7628 36.7524 31.97 36.74L41.56 35.88L45.35 27C45.5153 26.6131 45.9606 26.4305 46.35 26.59C46.5381 26.6632 46.6868 26.8119 46.76 27L46.77 27ZM46.18 0C48.1915 -0.0383501 50.1609 0.579473 51.79 1.76C54 3.16 56.45 5.91 59.5 7.65C63.78 10.1 71.72 6.72 75.79 12.76C78.16 16.28 78.27 19.04 78.45 21.76C78.5776 25.2988 79.8873 28.6928 82.17 31.4C87.17 37.99 88.17 42.4 85.62 46.96C83.87 50.07 80.18 51.81 79.33 53.78C77.51 57.98 79.52 61.15 77.03 66.05C75.4444 69.3143 72.5711 71.7709 69.1 72.83C66.1 73.83 63.1 72.4 60.71 73.41C56.5 75.19 53.39 79.3 50 80.34C47.4829 81.1238 44.7871 81.1238 42.27 80.34C38.92 79.34 35.81 75.19 31.61 73.42C29.21 72.42 26.21 73.81 23.22 72.84C19.7422 71.7888 16.863 69.3302 15.28 66.06C12.83 61.16 14.84 58 13 53.79C12.14 51.79 8.45 50.08 6.7 46.97C4.13 42.39 5.17 37.97 10.16 31.41C13.16 27.41 13.69 24.71 13.88 21.77C14.05 19.04 14.16 16.28 16.53 12.77C20.6 6.77 28.53 10.11 32.83 7.66C35.83 5.92 38.34 3.17 40.54 1.78C42.1742 0.584778 44.1558 -0.0406036 46.18 -9.53558e-07L46.18 0ZM46.06 16.93C59.3964 16.93 70.2082 27.7403 70.21 41.0767C70.2118 54.4131 59.403 65.2263 46.0667 65.23C32.7303 65.2337 21.9155 54.4264 21.91 41.09C21.91 27.7523 32.7223 16.94 46.06 16.94L46.06 16.93ZM89 113.07L77.41 111L71.68 121.25C67.52 126.4 64.88 117.94 63.68 114.99L52.57 94C55.14 93.11 58.24 90.53 61.42 87.65C67.77 87.78 73.69 86.65 78.04 81.13L90.86 105.89L92 108.23C92.87 111.31 92.41 113.35 89 113.07L89 113.07Z" id="Forme" fill="#FFFFFF" fill-rule="evenodd" stroke="none" />
  </g>
</svg>

<svg id="Layer_1" data-name="Layer 1" xmlns="http://www.w3.org/2000/svg" viewBox="0 0 92.35 122.88"><defs><style>.cls-1{fill-rule:evenodd;}</style></defs><title>best-quality</title><path class="cls-1" d="M3.39,113.07,15,111l5.73,10.25c4.15,5.15,6.79-3.31,8-6.26L39.78,94c-2.57-.89-5.66-3.47-8.85-6.35-6.35.13-12.26-1-16.62-6.52L1.5,105.85.38,108.23c-.87,3.08-.41,5.12,3,4.84ZM46.77,27l3.79,8.88,9.62.86a.78.78,0,0,1,.7.83.81.81,0,0,1-.26.52h0l-7.27,6.35,2.15,9.41a.78.78,0,0,1-1.18.82L46.06,49.7l-8.29,4.95a.77.77,0,0,1-1.05-.26.73.73,0,0,1-.09-.57h0l2.15-9.41-7.27-6.35A.77.77,0,0,1,31.43,37a.79.79,0,0,1,.54-.26l9.59-.86L45.35,27a.77.77,0,0,1,1-.41.72.72,0,0,1,.41.41ZM46.18,0a9.26,9.26,0,0,1,5.61,1.76C54,3.16,56.45,5.91,59.5,7.65c4.28,2.45,12.22-.93,16.29,5.11,2.37,3.52,2.48,6.28,2.66,9a15.84,15.84,0,0,0,3.72,9.64c5,6.59,6,11,3.45,15.56-1.75,3.11-5.44,4.85-6.29,6.82-1.82,4.2.19,7.37-2.3,12.27a13.05,13.05,0,0,1-7.93,6.78c-3,1-6-.43-8.39.58C56.5,75.19,53.39,79.3,50,80.34a13,13,0,0,1-7.73,0c-3.35-1-6.46-5.15-10.66-6.92-2.4-1-5.4.39-8.39-.58a13,13,0,0,1-7.94-6.78C12.83,61.16,14.84,58,13,53.79c-.86-2-4.55-3.71-6.3-6.82-2.57-4.58-1.53-9,3.46-15.56,3-4,3.53-6.7,3.72-9.64.17-2.73.28-5.49,2.65-9,4.07-6,12-2.66,16.3-5.11,3-1.74,5.51-4.49,7.71-5.88A9.24,9.24,0,0,1,46.18,0Zm-.12,16.93A24.15,24.15,0,1,1,21.91,41.09,24.15,24.15,0,0,1,46.06,16.94ZM89,113.07,77.41,111l-5.73,10.25c-4.16,5.15-6.8-3.31-8-6.26L52.57,94c2.57-.89,5.67-3.47,8.85-6.35,6.35.13,12.27-1,16.62-6.52l12.82,24.76L92,108.23c.87,3.08.41,5.12-3,4.84Z"/></svg>
